X:1
T:Miss Hamilton
T:Miss Hamilton
T:Cornelius Lyons (1706)
C:Cornelius Lyons (1706)
L:1/8
Q:1/8=50
M:4/4
K:G
V:1 treble 
V:1
 B2 d2 cBAG | c>c B/c/d D2 D z | C/D/EDC B,DGD | CB,A,G, A,2 A, z | BddB AGAF | GBAG ED/E/ G2 | %6
 dBAG EF/G/DC | B,2 A,2 G,4 || dedc cBAG | dedc cBAG | Bdgd edcB | cBAG A2 A z | B/c/dcB AGAF | %13
 G/F/G/A/BG ED/E/ G2 | dBAG E/F/GDC | B,2 A,2 G,4 ||[K:D]"^Simplified version in D" f2 a2 gfed | %17
 gfga A4 | GBAG FAdA | GFED E2 E z | faaf edec | dfed B2 d2 | afed BcAG | F2 E2 D4 || abag gfed | %25
 defd B2 d2 | afed BcAG | F2 E2 D4 || %28

